images_sukapura_svg/cmd/32/insertcolumns.svg

<svg viewBox="0 0 32 32" xmlns="http://www.w3.org/2000/svg" xmlns:xlink="http://www.w3.org/1999/xlink"><linearGradient id="a" gradientUnits="userSpaceOnUse" x1="19.5" x2="19.5" y1="8.5" y2="3"><stop offset="0" stop-color="#007018"/><stop offset="1" stop-color="#32d74b"/></linearGradient><linearGradient id="b" gradientUnits="userSpaceOnUse" x1="15" x2="15" y1="0" y2="24"><stop offset="0" stop-color="#efefef"/><stop offset=".33333334" stop-color="#fff"/><stop offset=".8888889" stop-color="#fff"/><stop offset="1" stop-color="#f5f5f5"/></linearGradient><filter id="c" color-interpolation-filters="sRGB" height="1.116265" width="1.123983" x="-.061992" y="-.058132"><feGaussianBlur stdDeviation=".61991525"/></filter><path d="m4 5v20.59375h12v-20.59375zm19 0v20.59375h5v-20.59375z" filter="url(#c)" opacity=".15" stroke-width="1.032659"/><path d="m4 4c-.554 0-1 .446-1 1v19c0 .554.446 1 1 1h12v-1h-1-5-1-5v-4-1-4-1-4-1-4h12v-1zm19 0v1h5v4 1 4 1 4 1 4h-5v1h5c.554 0 1-.446 1-1v-19c0-.554-.446-1-1-1z" fill="#69696e"/><path d="m4 5v19h12v-19zm19 0v19h5v-19z" fill="url(#b)"/><path d="m9 5v4h-5v1h5v4h-5v1h5v4h-5v1h5v4h1v-4h5v4h1v-4-1-4-1-4-1-4h-1v4h-5v-4zm14 0v4 1 4 1 4 1 4h1v-4h4v-1h-4v-4h4v-1h-4v-4h4v-1h-4v-4zm-13 5h5v4h-5zm0 5h5v4h-5z" fill="#bababa"/><g transform="translate(0 1)"><path d="m17 9h5v19h-5z" fill="#32d74b"/><path d="m16 8v21h1 5 1v-21h-1-5zm1 1h5v4h-5zm0 5h5v4h-5zm0 5h5v4h-5zm0 5h5v4h-5z" fill="#007018"/></g><path d="m15.878906 4-.439453.4394531c-.416267.4165568-.549567 1.0906923-.324219 1.6347657.159584.3852916.495038.6816126.884766.8261718v-2.9003906zm7.121094 0v2.9003906c.389728-.1445592.725182-.4408802.884766-.8261718.225348-.5440733.092048-1.2182089-.324219-1.6347657l-.439453-.4394531z" fill="#fff" fill-opacity=".784314"/><path d="m19.492188 2a.50005.50005 0 0 0 -.345704.1464844l-3 3a.50005.50005 0 0 0 .353516.8535156h1.5v1.5c0 .277.223.5.5.5h2c.277 0 .5-.223.5-.5v-1.5h1.5a.50005.50005 0 0 0 .353516-.8535156l-3-3a.50005.50005 0 0 0 -.361328-.1464844z" fill="url(#a)"/></svg>

<?xml version="1.0" encoding="UTF-8" standalone="no"?>
<svg
   xmlns:dc="http://purl.org/dc/elements/1.1/"
   xmlns:cc="http://creativecommons.org/ns#"
   xmlns:rdf="http://www.w3.org/1999/02/22-rdf-syntax-ns#"
   xmlns:svg="http://www.w3.org/2000/svg"
   xmlns="http://www.w3.org/2000/svg"
   xmlns:xlink="http://www.w3.org/1999/xlink"
   xmlns:sodipodi="http://sodipodi.sourceforge.net/DTD/sodipodi-0.dtd"
   xmlns:inkscape="http://www.inkscape.org/namespaces/inkscape"
   viewBox="0 0 32 32"
   version="1.1"
   id="svg26"
   sodipodi:docname="insertcolumns.svg"
   inkscape:export-filename="/home/rizmut/Dokumen/Rizmut/Github/libreoffice-style-sukapura/images_sukapura/cmd/32/insertcolumns.png"
   inkscape:export-xdpi="96"
   inkscape:export-ydpi="96"
   inkscape:version="0.92.3 (unknown)">
  <metadata
     id="metadata32">
    <rdf:RDF>
      <cc:Work
         rdf:about="">
        <dc:format>image/svg+xml</dc:format>
        <dc:type
           rdf:resource="http://purl.org/dc/dcmitype/StillImage" />
        <dc:title></dc:title>
      </cc:Work>
    </rdf:RDF>
  </metadata>
  <defs
     id="defs30">
    <linearGradient
       inkscape:collect="always"
       id="linearGradient1719">
      <stop
         style="stop-color:#007018;stop-opacity:1;"
         offset="0"
         id="stop1715" />
      <stop
         style="stop-color:#32d74b;stop-opacity:1"
         offset="1"
         id="stop1717" />
    </linearGradient>
    <linearGradient
       inkscape:collect="always"
       xlink:href="#linearGradient1719"
       id="linearGradient906"
       x1="19.5"
       y1="7.5"
       x2="19.5"
       y2="2"
       gradientUnits="userSpaceOnUse"
       gradientTransform="translate(0,1)" />
  </defs>
  <sodipodi:namedview
     pagecolor="#ffffff"
     bordercolor="#666666"
     borderopacity="1"
     objecttolerance="10"
     gridtolerance="10"
     guidetolerance="10"
     inkscape:pageopacity="0"
     inkscape:pageshadow="2"
     inkscape:window-width="1366"
     inkscape:window-height="697"
     id="namedview28"
     showgrid="true"
     inkscape:zoom="7.375"
     inkscape:cx="0.17958922"
     inkscape:cy="5.1742267"
     inkscape:window-x="0"
     inkscape:window-y="0"
     inkscape:window-maximized="1"
     inkscape:current-layer="svg26">
    <inkscape:grid
       type="xygrid"
       id="grid839"
       spacingx="0.5"
       spacingy="0.5"
       empspacing="2" />
  </sodipodi:namedview>
  <linearGradient
     id="a"
     gradientUnits="userSpaceOnUse"
     x1="15"
     x2="15"
     y1="4"
     y2="28"
     gradientTransform="translate(0,-4)">
    <stop
       offset="0"
       stop-color="#efefef"
       id="stop2" />
    <stop
       offset=".33333334"
       stop-color="#fff"
       id="stop4" />
    <stop
       offset=".8888889"
       stop-color="#fff"
       id="stop6" />
    <stop
       offset="1"
       stop-color="#f5f5f5"
       id="stop8" />
  </linearGradient>
  <filter
     id="b"
     color-interpolation-filters="sRGB"
     height="1.116265"
     width="1.123983"
     x="-.061992"
     y="-.058132">
    <feGaussianBlur
       stdDeviation=".61991525"
       id="feGaussianBlur11" />
  </filter>
  <g
     id="g967">
    <g
       id="g954">
      <path
         style="opacity:0.15;stroke-width:1.03265905;filter:url(#b)"
         d="M 4,5 V 25.59375 H 16 V 5 Z m 19,0 v 20.59375 h 5 V 5 Z"
         id="path14"
         inkscape:connector-curvature="0" />
      <path
         style="fill:#69696e"
         d="M 4,4 C 3.446,4 3,4.446 3,5 v 19 c 0,0.554 0.446,1 1,1 H 16 V 24 H 15 10 9 4 V 20 19 15 14 10 9 5 H 16 V 4 Z m 19,0 v 1 h 5 v 4 1 4 1 4 1 4 h -5 v 1 h 5 c 0.554,0 1,-0.446 1,-1 V 5 C 29,4.446 28.554,4 28,4 Z"
         id="path16"
         inkscape:connector-curvature="0" />
      <path
         style="fill:url(#a)"
         d="M 4,5 V 24 H 16 V 5 Z m 19,0 v 19 h 5 V 5 Z"
         id="path18"
         inkscape:connector-curvature="0" />
      <path
         style="fill:#bababa"
         d="M 9,5 V 9 H 4 v 1 h 5 v 4 H 4 v 1 h 5 v 4 H 4 v 1 h 5 v 4 h 1 v -4 h 5 v 4 h 1 V 20 19 15 14 10 9 5 H 15 V 9 H 10 V 5 Z m 14,0 v 4 1 4 1 4 1 4 h 1 v -4 h 4 v -1 h -4 v -4 h 4 v -1 h -4 v -4 h 4 V 9 H 24 V 5 Z m -13,5 h 5 v 4 h -5 z m 0,5 h 5 v 4 h -5 z"
         id="path22"
         inkscape:connector-curvature="0" />
    </g>
    <g
       id="g948">
      <g
         id="g896"
         transform="translate(0,1)">
        <rect
           y="9"
           x="17"
           height="19"
           width="5"
           id="rect880"
           style="opacity:1;fill:#32d74b;fill-opacity:1;stroke:none;stroke-width:1;stroke-linecap:round;stroke-linejoin:round;stroke-miterlimit:4;stroke-dasharray:none;stroke-opacity:0" />
        <path
           inkscape:connector-curvature="0"
           id="rect841"
           d="m 16,8 v 21 h 1 5 1 V 8 h -1 -5 z m 1,1 h 5 v 4 h -5 z m 0,5 h 5 v 4 h -5 z m 0,5 h 5 v 4 h -5 z m 0,5 h 5 v 4 h -5 z"
           style="opacity:1;fill:#007018;fill-opacity:1;stroke:none;stroke-width:1;stroke-linecap:round;stroke-linejoin:round;stroke-miterlimit:4;stroke-dasharray:none;stroke-opacity:0" />
      </g>
      <path
         style="fill:#ffffff;fill-opacity:0.78431373;stroke:none;stroke-width:1px;stroke-linecap:butt;stroke-linejoin:miter;stroke-opacity:1"
         d="M 15.878906,4 15.439453,4.4394531 C 15.023186,4.8560099 14.889886,5.5301454 15.115234,6.0742188 15.274818,6.4595104 15.610272,6.7558314 16,6.9003906 V 4 Z M 23,4 V 6.9003906 C 23.389728,6.7558314 23.725182,6.4595104 23.884766,6.0742188 24.110114,5.5301455 23.976814,4.8560099 23.560547,4.4394531 L 23.121094,4 Z"
         id="path914"
         inkscape:connector-curvature="0" />
      <path
         style="fill:url(#linearGradient906);fill-opacity:1;stroke:none;stroke-width:1px;stroke-linecap:butt;stroke-linejoin:miter;stroke-opacity:1"
         d="m 19.492188,2 a 0.50005,0.50005 0 0 0 -0.345704,0.1464844 l -3,3 A 0.50005,0.50005 0 0 0 16.5,6 H 18 V 7.5 C 18,7.777 18.223,8 18.5,8 h 2 C 20.777,8 21,7.777 21,7.5 V 6 h 1.5 a 0.50005,0.50005 0 0 0 0.353516,-0.8535156 l -3,-3 A 0.50005,0.50005 0 0 0 19.492188,2 Z"
         id="path898"
         inkscape:connector-curvature="0" />
    </g>
  </g>
</svg>
